X: 6002
T: Canfield
R: polka
M: 2/4
K: Aminor
|:EA BA|EA BA|e>^f g^f|ed BA|
EA BA|EA BA|c2 A^G|1 A2 A2:|2 A2 Aa||
|:^g>a ba|^gf ed|ce e^d|ef ea|
^g>a ba|^gf ed|c2 A^G|1 A2 Aa:|2 A2 A2||

